X: 27005
T: Miss Forbes' Farewell To Banff
R: reel
M: 4/4
K: Gmajor
GA|B2Bd cBAG|B2d2 efge|d2de dBAG|B2A2 A2GA|
B2Bd cBAG|B2d2 efge|d2de dBGA|B2G2 G2:|
(3def|gfga gfed|edef g2fe|d2de dBAG|
B2A2 A2(3def|gfga gfed|edef g2fe|d2de dBGA|
B2G2 G2(3def|gfga gfed|edef g2fe|d2de dBAG|
B2A2 A2GA|B2Bd cBAG|B2d2 efge|d2de dBGA|B2G2 G2||
d2de dBGA|B2G2 G2||

